!!!!SEGMENT: pl-stab--75a--001_rodowski-aleksander--missa-pastorales-kyrie.krn
!!!cenid: 18xx:3404
!!!COM: Rodowski, Aleksander
!!!COM-rismid: pe30009627
!!!CDT: <1790->1810
!!!CNT: Polish
!!!OPR: Missa Pastorales
!!!OTL: Kyrie
!!!OMV: 001
!!!PDT: 1850
!!!AGN:
!!!SMS-siglum: PL-STAb
!!!SMS-shelfmark: 75a
!!!SMS-shelfwork: M
!!!SMS-variant: Partytura: PL-STAb 75a:3
!!!SMS-altvar: Canto: PL-STAb 75a:5, Organo PL-STAb 75a:7
!!!NIFC-rismid: 301050718
!!!URL-scan: https://repozytorium.nifc.pl/islandora/object/pl-stab%3A4458/datastream/PDF/view
!!!ONB-nifc: UWAGA: na podstawie partytury (s. 3-5, 10-11). W źródle znajdują się także głosy. Proszę o wypełnienie pól SMS:variant i SMS:altvar. UWAGA: części Mszy: 1. Kyrie, 2. Gloria, 3. Credo, 4. Et incarnatus, 5. Sanctus, 6. Benedictus, 7. Agnus Dei
!!!key: C
**kern	**kern	**kern	**kern	**text
*part3	*part3	*part2	*part1	*part1
*staff4	*staff3	*staff2	*staff1	*staff1
*>[A,A,B,B,A]	*>[A,A,B,B,A]	*>[A,A,B,B,A]	*>[A,A,B,B,A]	*>[A,A,B,B,A]
*>A	*>A	*>A	*>A	*>A
*I"Organo	*	*I"Basſ	*I"Cant.	*
*Iorg	*	*Ibass	*Isoprn	*
*ICklav	*	*ICvox	*ICvox	*
*clefF4	*clefG2	*clefF4	*clefG2	*
*k[]	*k[]	*k[]	*k[]	*
*C:	*C:	*C:	*C:	*
*M4/4	*M4/4	*M4/4	*M4/4	*
*met(c)	*met(c)	*met(c)	*met(c)	*
*all\right	*all\right	*all\right	*all\right	*
=1	=1	=1	=1	=1
!	!	!	!LO:TX:a:B:t=Adagio	!
4c 4C\	4ccc 4ee 4cc\	4c\	4cc 4e\	Ky-
4G 4GG\	4bb 4gg 4ff 4dd\	4G\	4dd 4f\	-ri-
4c 4C\	4ccc 4gg 4ee 4cc\	4c\	4ee 4g\	-e
4G 4GG\	4bb 4gg 4ff 4dd\	4G\	4dd 4f\	e-
=2	=2	=2	=2	=2
*	*	*	*^	*
8cL 8C\	8cccL 8cc\	8c\L	4cc 4e\	4ryy	-lej-
8G\	8gg\J	8G\J	.	.	.
8E\	8ee\L	8E\L	8ee\L	8gL\	.
8C\J	8cc\J	8C\J	8cc\J	8e\J	.
4GG/	4g/	4GG/	4g 4e/	2ryy	-son
4r	4r	4r	4r	.	.
*	*	*	*v	*v	*
=3	=3	=3	=3	=3
!LO:TX:t=P:problem:mixed beam	!	!	!	!
8GG/L	8b\L	2GG/	4b 4d\	Ky-
8F\	8dd\	.	.	.
8D\	8ff\	.	4dd 4f\	-ri-
8F\J	8aa\J	.	.	.
*	*	*	*2\right	*
8C\L	8gg\L	2C/	2cc 2e\	-e
8G\	8ee\J	.	.	.
8E\	4cc\	.	.	.
8G\J	.	.	.	.
=4	=4	=4	=4	=4
!LO:TX:t=P:problem:mixed beam	!	!	!	!
8GG/L	8b\L	2GG/	4b 4d\	Ky-
8G\	8dd\	.	.	.
8F 8D\	8ff\	.	4dd 4f\	-ri-
8G\J	8dd\J	.	.	.
8C\L	8cc\L	2C/	2cc 2e\	-e
8G\	8ee\J	.	.	.
8E\	4gg\	.	.	.
8G\J	.	.	.	.
!!LO:LB:g=original
=5	=5	=5	=5	=5
*	*	*	*	*ij
!LO:TX:t=P:problem:mixed beam	!	!	!	!
8GG/L	8b\L	2GG/	4b 4d\	Ky-
8G\	8dd\	.	.	.
8F 8D\	8ff\	.	4dd 4f\	-ri-
8G\J	8aa\J	.	.	.
*	*	*2\right	*	*
8C\L	8gg\L	2C\	2cc 2e\	-e
*	*	*	*	*Xij
8G\	8ee\J	.	.	.
8E\	4cc\	.	.	.
8G\J	.	.	.	.
=6	=6	=6	=6	=6
!LO:TX:t=P:problem:mixed beam	!LO:TX:t=P:problem:mixed beam	!	!	!
8GG/L	8dd\L	4GG/	4dd 4f\	e-
8G\	8ff#X\	.	.	.
8D\	8gg\	4GG/	4b\	-lej-
8G\J	8g/J	.	.	.
8EL 8C\	4cc\	4C\	4cc 4e\	-son
8G\	.	.	.	.
8EJ 8C\	4r	4r	4r	.
8r	.	.	.	.
=7	=7	=7	=7	=7
!LO:TX:t=P:problem:mixed beam	!	!	!	!
8GG/L	8b\L	2GG/	4b 4d\	Ky-
8G\	8dd\	.	.	.
8F 8D\	8ff\	.	4dd 4f\	-ri-
8G\J	8aa\J	.	.	.
8C\L	8gg\L	2C\	2cc 2e\	-e
8G\	8ee\J	.	.	.
8E\	4cc\	.	.	.
8G\J	.	.	.	.
=8	=8	=8	=8	=8
*	*	*	*	*ij
!LO:TX:t=P:problem:mixed beam	!	!	!	!
8GG/L	8b\L	2GG/	4b 4d\	Ky-
8G\	8dd\	.	.	.
8F 8D\	8ff\	.	4dd 4f\	-ri-
8G\J	8dd\J	.	.	.
8C\L	8cc\L	2C\	2cc 2e\	-e
8G\	8ee\J	.	.	.
8E\	4gg\	.	.	.
8G\J	.	.	.	.
=9	=9	=9	=9	=9
!LO:TX:t=P:problem:mixed beam	!	!	!	!
8GG/L	8b\L	2GG/	4b 4d\	Ky-
8G\	8dd\	.	.	.
8F 8D\	8ff\	.	4dd 4f\	-ri-
8G\J	8aa\J	.	.	.
8C\L	8gg\L	2C\	2cc 2e\	-e
*	*	*	*	*Xij
8G\	8ee\J	.	.	.
8E\	4cc\	.	.	.
8G\J	.	.	.	.
!!LO:LB:g=original
=10	=10	=10	=10	=10
!LO:TX:t=P:problem:mixed beam	!LO:TX:t=P:problem:mixed beam	!	!	!
8GG/L	8dd\L	4GG/	4dd 4f\	e-
8G\	8ff#X\	.	.	.
8D\	8gg\	4GG/	4b 4d\	-lej-
8G\J	8g/J	.	.	.
8EL 8C\	4cc\	4C\	4cc 4e\	-son
8G\	.	.	.	.
8EJ 8C\	4r	4ryy	4ryy	.
8r	.	.	.	.
=11:|!|:	=11:|!|:	=11:|!|:	=11:|!|:	=11:|!|:
*>B	*>B	*>B	*>B	*>B
(8BL 8G\	(8dd\L	2G\	2dd 2b\	Chri-
8D\	8gg\)	.	.	.
8B 8G\	8dd'\	.	.	.
8D\J)	8dd'\J	.	.	.
(8cL 8A 8F#X\	(8dd\L	2F#X\	2dd 2cc 2a\	-ste
8D\J)	8aa\)	.	.	.
*rep	*	*	*	*
(8cL 8A 8F#\	8dd'\	.	.	.
8D\J)	8dd'\J	.	.	.
*Xrep	*	*	*	*
=12	=12	=12	=12	=12
*	*	*	*	*ij
(8BL 8G\	(8dd\L	2G\	2dd 2b\	Chri-
8D\	8bb\	.	.	.
8B 8G\	8gg\	.	.	.
8D\J)	8aa\J)	.	.	.
8cL 8A 8F#X\	(8gg\L	2F#X\	2dd 2b 2a\	-ste
8D\J	8ff#X\	.	.	.
*rep	*	*	*	*
8cL 8A 8F#\	8ee\	.	.	.
8D\J	8dd\J)	.	.	.
*Xrep	*	*	*	*
=13	=13	=13	=13	=13
(8BL 8G\	(8dd\L	2G\	2dd 2b\	Chri-
8D\	8gg\)	.	.	.
8B 8G\	8dd'\	.	.	.
8D\J)	8dd'\J	.	.	.
(8cL 8A 8F#X\	(8dd\L	2F#X\	2dd 2cc 2a\	-ste
*	*	*	*	*Xij
8D\J)	8aa\)	.	.	.
*rep	*	*	*	*
(8cL 8A 8F#\	8dd'\	.	.	.
8D\J)	8dd'\J	.	.	.
*Xrep	*	*	*	*
=14	=14	=14	=14	=14
8BL 8G\	(8dd\L	4G\	4dd 4b\	e-
8D\	8bb\	.	.	.
8c 8A 8F#X\	8aa\	4D\	4dd 4a\	-lej-
8D\J	8ff#X\J)	.	.	.
8G\L	4gg\	4G\	4b 4g\	-son
8D\	.	.	.	.
8BB\	4r	4r	4r	.
!LO:TX:b:i:t=Da Capo Kyrie	!	!	!	!
8GG\J	.	.	.	.
=:|!	=:|!	=:|!	=:|!	=:|!
*-	*-	*-	*-	*-
!!!system-decoration: <(s1,s2)>{(s3,s4)}
!!!ENC: Filip Voros
!!!END: 2021-11-16
!!!ENC: Andrzej Kubiczek
!!!END: 2021-12-12
